_icons/SVG/195-quagsire.svg

<svg xmlns="http://www.w3.org/2000/svg" width="32" height="32"><path fill="#7FB8E0" d="M24.667 20.833c-3.75 2.833-1.167 3.917-10.724 3.917 1.661 1.94 6.638 3 10.039 2.659.982-.098 5.851-1.409 5.851-3.825 0-3.084-2.788-4.548-5.166-2.751z"/><path fill="#495587" d="M26.5 21.25c-3.75 2.833-3.333 4-10.391 4 1.661 1.94 6.823 2.591 10.224 2.25.982-.098 5.667-1 5.667-3.417 0-3.083-3.121-4.63-5.5-2.833z"/><path fill="#7FB8E0" d="M26.833 22.833c-3.75 2.833-3 5.167-10.833 3.25 1.833 3.167 8.833 3.333 11.583 3C29.403 28.863 32 28 32 25.583c0-3.083-2.788-4.547-5.167-2.75z"/><path fill="#C1DDEE" d="M16 0v28.5c-2.083 0-2.689 1.07-4.5 1-4.333-.167-5.452-3.832-5.5-6-.083-3.75 2.25-6.333 2.5-8.75C9.048 9.453 8 0 16 0z"/><path fill="#8EC0E0" d="M11.25 28.625l-2.018 2.018a.794.794 0 00-.232.561v.003c0 .438.355.793.793.793h2.914a.793.793 0 00.793-.793v-2.582h-2.25z"/><path fill="#C1DDEE" d="M10.5 17.5c-5 0-10.5-3.667-10.5-6.61C0 9 .5 7.265 2.5 7.265c1.875 0 3.066 2.334 3.5 3.235.722 1.5 2.5 2 4.519 2l-.019 5z"/><path fill="#B0D3EA" d="M21.481 12.5c2.019 0 3.796-.5 4.519-2 .434-.901 1.625-3.234 3.5-3.235 2 0 2.5 1.735 2.5 3.625 0 2.943-5.5 6.61-10.5 6.61l-.019-5z"/><path fill="#675099" d="M7.992 16.609C7.234 18.531 5.938 20.687 6 23.5c.875-2.187 2.5-.812 3.062-3.062.375-1.498-.937-2.063-1.07-3.829z"/><path fill="#6E57A0" d="M7.992 16.609C7.234 18.531 5.938 20.687 6 23.5c.875-2.187 2.5-.812 3.062-3.062.375-1.498-.937-2.063-1.07-3.829z"/><path fill="#B0D3EA" d="M23.5 14.75c.25 2.417 2.583 5 2.5 8.75-.048 2.168-1.167 5.833-5.5 6-1.811.07-2.417-1-4.5-1V0c8.042 0 6.952 9.453 7.5 14.75z"/><path fill="#8EC0E0" d="M20.75 28.625l2.018 2.018c.148.148.232.35.232.561v.003a.793.793 0 01-.793.793h-2.914a.793.793 0 01-.793-.793v-2.582h2.25z"/><path fill="#B0D3EA" d="M16 25.438V28.5c-2.083 0-2.689 1.07-4.5 1-4.333-.167-5.417-3.833-5.5-6 1.875 1.125 5.5 1.938 10 1.938z"/><path fill="#9FC9E4" d="M26 23.5c-.083 2.167-1.167 5.833-5.5 6-1.811.07-2.417-1-4.5-1v-3.062c4.5 0 8.125-.813 10-1.938z"/><path fill="#604893" d="M24.01 16.609c.758 1.922 2.055 4.078 1.992 6.891-.875-2.188-2.5-.812-3.062-3.062-.375-1.498.937-2.063 1.07-3.829z"/><path fill="#604893" d="M24.01 16.609c.758 1.922 2.055 4.078 1.992 6.891-.875-2.188-2.5-.812-3.062-3.062-.375-1.498.937-2.063 1.07-3.829z"/><path fill="#C1DDEE" d="M16 6.162V0c3.772 0 5.533 2.102 6.398 4.879.079.254-2.96 1.533-6.398 1.283z"/><path fill="#D2E6F3" d="M9.602 4.879C10.467 2.102 12.228 0 16 0v6.162c-3.438.25-6.477-1.029-6.398-1.283z"/><circle fill="#2B3332" cx="18.875" cy="3.558" r=".375"/><circle fill="#373F3F" cx="13.125" cy="3.558" r=".375"/><path fill="#7F1E32" d="M16 5.416c1.878 0 1.625.562 4.375.292 0 .875-.248 4.249-.938 5.086-.804.975-2.283 1.05-3.438 1.05V5.416z"/><path fill="#B93D4F" d="M16 9.844c1.438 0 2.594.25 3.438.95-.804.975-2.283 1.05-3.438 1.05v-2z"/><path fill="#8A323F" d="M16 11.844c-1.155 0-2.634-.075-3.438-1.05-.69-.837-.937-4.211-.937-5.086 2.75.271 2.497-.292 4.375-.292v6.428z"/><path fill="#C84054" d="M16 11.844c-1.155 0-2.634-.075-3.438-1.05.844-.7 2-.95 3.438-.95v2z"/></svg>

<?xml version="1.0" encoding="utf-8"?>
<!-- Generator: Adobe Illustrator 23.0.6, SVG Export Plug-In . SVG Version: 6.00 Build 0)  -->
<svg version="1.1" xmlns="http://www.w3.org/2000/svg" xmlns:xlink="http://www.w3.org/1999/xlink" x="0px" y="0px" width="32px"
	 height="32px" viewBox="0 0 32 32" enable-background="new 0 0 32 32" xml:space="preserve">
<g id="labels">
	<g>
	</g>
</g>
<g id="icons">
	<g>
		<path fill="#7FB8E0" d="M24.667,20.833c-3.75,2.833-1.167,3.917-10.724,3.917c1.661,1.94,6.638,3,10.039,2.659
			c0.982-0.098,5.851-1.409,5.851-3.825C29.833,20.5,27.045,19.036,24.667,20.833z"/>
		<path fill="#495587" d="M26.5,21.25c-3.75,2.833-3.333,4-10.391,4c1.661,1.94,6.823,2.591,10.224,2.25
			c0.982-0.098,5.667-1,5.667-3.417C32,21,28.879,19.453,26.5,21.25z"/>
		<path fill="#7FB8E0" d="M26.833,22.833c-3.75,2.833-3,5.167-10.833,3.25c1.833,3.167,8.833,3.333,11.583,3
			C29.403,28.863,32,28,32,25.583C32,22.5,29.212,21.036,26.833,22.833z"/>
		<path fill="#C1DDEE" d="M16,0v28.5c-2.083,0-2.689,1.07-4.5,1c-4.333-0.167-5.452-3.832-5.5-6c-0.083-3.75,2.25-6.333,2.5-8.75
			C9.048,9.453,8,0,16,0z"/>
		<path fill="#8EC0E0" d="M11.25,28.625l-2.018,2.018C9.084,30.791,9,30.993,9,31.204v0.003C9,31.645,9.355,32,9.793,32h2.914
			c0.438,0,0.793-0.355,0.793-0.793v-2.582H11.25z"/>
		<path fill="#C1DDEE" d="M10.5,17.5c-5,0-10.5-3.667-10.5-6.61C0,9,0.5,7.265,2.5,7.265c1.875,0,3.066,2.334,3.5,3.235
			c0.722,1.5,2.5,2,4.519,2L10.5,17.5z"/>
		<path fill="#B0D3EA" d="M21.481,12.5c2.019,0,3.796-0.5,4.519-2c0.434-0.901,1.625-3.234,3.5-3.235c2,0,2.5,1.735,2.5,3.625
			c0,2.943-5.5,6.61-10.5,6.61L21.481,12.5z"/>
		<g>
			<g>
				<path fill="#675099" d="M7.992,16.609C7.234,18.531,5.938,20.687,6,23.5c0.875-2.187,2.5-0.812,3.062-3.062
					C9.437,18.94,8.125,18.375,7.992,16.609z"/>
			</g>
			<g>
				<path fill="#6E57A0" d="M7.992,16.609C7.234,18.531,5.938,20.687,6,23.5c0.875-2.187,2.5-0.812,3.062-3.062
					C9.437,18.94,8.125,18.375,7.992,16.609z"/>
			</g>
		</g>
		<path fill="#B0D3EA" d="M23.5,14.75c0.25,2.417,2.583,5,2.5,8.75c-0.048,2.168-1.167,5.833-5.5,6c-1.811,0.07-2.417-1-4.5-1V0
			C24.042,0,22.952,9.453,23.5,14.75z"/>
		<path fill="#8EC0E0" d="M20.75,28.625l2.018,2.018C22.916,30.791,23,30.993,23,31.204v0.003C23,31.645,22.645,32,22.207,32h-2.914
			c-0.438,0-0.793-0.355-0.793-0.793v-2.582H20.75z"/>
		<path fill="#B0D3EA" d="M16,25.438V28.5c-2.083,0-2.689,1.07-4.5,1c-4.333-0.167-5.417-3.833-5.5-6
			C7.875,24.625,11.5,25.438,16,25.438z"/>
		<path fill="#9FC9E4" d="M26,23.5c-0.083,2.167-1.167,5.833-5.5,6c-1.811,0.07-2.417-1-4.5-1v-3.062
			C20.5,25.438,24.125,24.625,26,23.5z"/>
		<g>
			<g>
				<path fill="#604893" d="M24.01,16.609c0.758,1.922,2.055,4.078,1.992,6.891c-0.875-2.188-2.5-0.812-3.062-3.062
					C22.565,18.94,23.877,18.375,24.01,16.609z"/>
			</g>
			<g>
				<path fill="#604893" d="M24.01,16.609c0.758,1.922,2.055,4.078,1.992,6.891c-0.875-2.188-2.5-0.812-3.062-3.062
					C22.565,18.94,23.877,18.375,24.01,16.609z"/>
			</g>
		</g>
		<path fill="#C1DDEE" d="M16,6.162V0c3.772,0,5.533,2.102,6.398,4.879C22.477,5.133,19.438,6.412,16,6.162z"/>
		<path fill="#D2E6F3" d="M9.602,4.879C10.467,2.102,12.228,0,16,0v6.162C12.562,6.412,9.523,5.133,9.602,4.879z"/>
		<circle fill="#2B3332" cx="18.875" cy="3.558" r="0.375"/>
		<circle fill="#373F3F" cx="13.125" cy="3.558" r="0.375"/>
		<path fill="#7F1E32" d="M16,5.416c1.878,0,1.625,0.562,4.375,0.292c0,0.875-0.248,4.249-0.938,5.086
			c-0.804,0.975-2.283,1.05-3.438,1.05V5.416z"/>
		<path fill="#B93D4F" d="M16,9.844c1.438,0,2.594,0.25,3.438,0.95c-0.804,0.975-2.283,1.05-3.438,1.05V9.844z"/>
		<path fill="#8A323F" d="M16,11.844c-1.155,0-2.634-0.075-3.438-1.05c-0.69-0.837-0.937-4.211-0.937-5.086
			c2.75,0.271,2.497-0.292,4.375-0.292V11.844z"/>
		<path fill="#C84054" d="M16,11.844c-1.155,0-2.634-0.075-3.438-1.05c0.844-0.7,2-0.95,3.438-0.95V11.844z"/>
	</g>
</g>
</svg>
